!!!COM: Palestrina, Giovanni Perluigi da
!!!OPR: Missa Sine nomine (1567)
!!!OTL: Sanctus
**kern	**kern	**kern	**kern
*Ibass	*Itenor	*Icalto	*Icant
!Bassus	!Tenor	!Altus	!Cantus
*clefF4	*clefGv2	*clefG2	*clefG2
*k[]	*k[]	*k[]	*k[]
*E:phr	*E:phr	*E:phr	*E:phr
*M4/2	*M4/2	*M4/2	*M4/2
=1	=1	=1	=1
0r	0r	0A	0r
=2	=2	=2	=2
0r	0r	1A	0e
.	.	[1c	.
=3	=3	=3	=3
0r	0r	2c]	1e
.	.	4B	.
.	.	4A	.
.	.	2B	[1g
.	.	2c	.
=4	=4	=4	=4
0r	0r	2.d	2g]
.	.	.	4f
.	.	4c	4e
.	.	2d	2f
.	.	2e	2g
=5	=5	=5	=5
0r	0r	2.f	2.a
.	.	4e	4g
.	.	1d	2a
.	.	.	2b
=6	=6	=6	=6
0r	0r	2c	2.cc
.	.	4A	.
.	.	4B	4b
.	.	4c	1a
.	.	4A	.
.	.	4c	.
.	.	4d	.
=7	=7	=7	=7
0E	0r	4e	2g
.	.	4f	.
.	.	2g	4e
.	.	.	4f
.	.	2.e	4g
.	.	.	4e
.	.	.	4g
.	.	4f	4a
=8	=8	=8	=8
1E	0r	2g	4b
.	.	.	4g
.	.	2e	1cc
[1G	.	[1d	.
.	.	.	4b
.	.	.	4a
=9	=9	=9	=9
2G]	0r	1d]	2b
4F	.	.	1a
4E	.	.	.
2F	.	1d	.
2G	.	.	4g
.	.	.	4f
=10	=10	=10	=10
2.A	0r	2c	1e
.	.	1e	.
4G	.	.	.
2A	.	.	1f
2B	.	2d	.
=11	=11	=11	=11
2.c	0A	1e	2e
.	.	.	2.cc
4B	.	.	.
4A	.	2r	.
4G	.	.	4b
4F	.	[2f	4a
4E	.	.	4g
=12	=12	=12	=12
1F	1A	4f]	1a
.	.	4e	.
.	.	4c	.
.	.	4d	.
1C	[1c	[1e	[1g
=13	=13	=13	=13
1.G	2c]	2e]	1g]
.	4B	4d	.
.	4A	4c	.
.	2B	2d	1r
2A	2c	[2c	.
=14	=14	=14	=14
0G	2.d	2c]	1g
.	.	4B	.
.	4c	4A	.
.	2d	1B	2g
.	2e	.	2g
=15	=15	=15	=15
1F	1f	1c	1a
[1C	[1e	2r	2g
.	.	2c	[2e
=16	=16	=16	=16
2C]	1e]	2c	4e]
.	.	.	4f
2E	.	2c	4g
.	.	.	4e
1D	1r	1d	2f
.	.	.	2f
=17	=17	=17	=17
1AA	2r	2c	2e
.	2c	2.A	2.cc
1r	2c	.	.
.	.	4B	4b
.	2c	4c	[2a
.	.	4A	.
=18	=18	=18	=18
1r	1d	2B-	2a]
.	.	2B-	2g
1F	2c	[1A	1a
.	[2A	.	.
=19	=19	=19	=19
2F	4A]	1A]	1f
.	4B	.	.
2F	4c	.	.
.	4A	.	.
1G	2B-	1r	2d
.	2B-	.	2e
=20	=20	=20	=20
2F	1A	2r	2.f
2.D	.	2f	.
.	.	.	4g
.	2r	2f	1a
4E	.	.	.
4F	[2d	2f	.
4D	.	.	.
=21	=21	=21	=21
2E	2d]	1g	0r
2E	2c#	.	.
1D	2.d	2f	.
.	.	[2d	.
.	4c	.	.
=22	=22	=22	=22
1D	2B	4d]	1r
.	.	4e	.
.	2.A	4f	.
.	.	4d	.
2C	.	1e	1cc
.	4G	.	.
[2AA	[2c	.	.
=23	=23	=23	=23
4AA]	4c]	1e	2cc
4BB	4B	.	.
4C	1A	.	2cc
4AA	.	.	.
1BB	.	2.d	1dd
.	2G#	.	.
.	.	4e	.
=24	=24	=24	=24
1AA	2A	2f	2cc
.	2c	4e	2.a
.	.	4d	.
1A	2c	2.e	.
.	.	.	4b
.	2c	.	4cc
.	.	4f	4a
=25	=25	=25	=25
1G	1d	2.g	2b
.	.	.	2b
.	.	4f	.
1A	2c	4e	2a
.	.	4d	.
.	[2A	4c	[2cc
.	.	4B	.
=26	=26	=26	=26
2r	4A]	1A	4cc]
.	4B	.	4b
2F	4c	.	1a
.	4A	.	.
2D	2B	1r	.
2E	2B	.	2g#
=27	=27	=27	=27
2.F	1A	2r	1a
.	.	2c	.
4F	.	.	.
2F	1r	2A	2r
2G	.	2B	2g
=28	=28	=28	=28
1A	0r	2.c	2e
.	.	.	2f#
.	.	4c	.
1G	.	2c	2.g
.	.	[2B	.
.	.	.	4g
=29	=29	=29	=29
2r	1r	2B]	2g
2F	.	1A	1f
2D	2r	.	.
2E	2c	2G	[2e
=30	=30	=30	=30
2F	2A	1r	2e]
2G	2B	.	2d
2E	2.c	2r	[1e
[2A	.	2c	.
.	4c	.	.
=31	=31	=31	=31
2A]	2c	2A	1e]
2G#	2.B	2B	.
1A	.	2.c	2r
.	4A	.	.
.	[2A	.	2cc
.	.	4c	.
=32	=32	=32	=32
1r	2A]	2c	2a
.	2G#	2.B	2b
2r	1A	.	2.cc
.	.	4A	.
2c	.	[2A	.
.	.	.	8b
.	.	.	8a
=33	=33	=33	=33
2A	1r	2A]	2cc
2B	.	2G#	2.b
2c	2r	1A	.
.	.	.	4a
[2F	2f	.	[2a
=34	=34	=34	=34
2F]	2d	1r	2a]
2.E	2e	.	2g#
.	2.f	2r	[1a
4D	.	.	.
[2D	.	2f	.
.	8e	.	.
.	8d	.	.
=35	=35	=35	=35
2D]	2f	2d	0a]
2C#	2.e	2e	.
1D	.	2.f	.
.	4d	.	.
.	[2d	.	.
.	.	8e	.
.	.	8d	.
=36	=36	=36	=36
1.A	4d]	2f	2r
.	4c	.	.
.	1c	4e	2cc
.	.	4d	.
.	.	[1e	2a
2G#	[2B	.	2b
=37	=37	=37	=37
1A	4B]	0e]	2.cc
.	4A	.	.
.	1A	.	.
.	.	.	4cc
1r	.	.	2cc
.	2G	.	[2b
=38	=38	=38	=38
2r	1c	1A	4b]
.	.	.	4a
2F	.	.	1a
2D	1B	1r	.
2E	.	.	2g#
=39	=39	=39	=39
2.F	1A	2r	1.a
.	.	2c	.
4F	.	.	.
2F	1r	2A	.
2A	.	2B	4g
.	.	.	4f
=40	=40	=40	=40
1A	2r	2.c	1e
.	2c	.	.
.	.	4c	.
2F	2A	2c	2r
2E	2B	[2e	2g
=41	=41	=41	=41
1A	2.c	2e]	2e
.	.	4d	2f#
.	4c	4c	.
2r	2c	2e	2.g
2G	[2B	2d	.
.	.	.	4g
=42	=42	=42	=42
2E	2B]	2e	2g
2F	1A	2c	2.f
2D	.	2d	.
.	.	.	4e
2E	2G#	[2c	[2e
=43	=43	=43	=43
0F	0A	4c]	2e]
.	.	4B	.
.	.	4A	4d
.	.	4G	4c
.	.	1A	1d
=44	=44	=44	=44
[0E	[0G#	[0B	[0e
=45	=45	=45	=45
0E]	0G#]	0B]	0e]
==	==	==	==
*-	*-	*-	*-
!!!CDT: 1525/^1526/-1594/2/2
!!!OCY: Italia
!!!AGN: Mass (Free)
!!!AST: renaissance, vocal
!!!ASW: Motet 1539 (Jacquet)
!!!PWK: Masses, Book 2
!!!RNB: Cadence finals: A,C
!!!YOR: Le Opere Complete, v. 4, p. 53
!!!YOO: Rome, Italy: Fratelli Scalera
!!!END: 1992//
!!!EED: John Miller
!!!YEC: Copyright 2000, John Miller
!!!YEN: United States of America
!!!YEM: Rights to all derivative electronic formats reserved.
!!!YEM: Refer to licensing agreement for further details.
!!!YEM: This file must be accompanied by the licensing agreement.
!!!YEM: A copy of the licensing agreement may be found at http://www.music-cog.ohio-state.edu/HumdrumDatabases/Palestrina/license.txt
!!!EMD: converted to Humdrum by Bret Aarden
